X: 0622
M: 2/4
L: 1/8
K: D
dc BA | BF FA | dc BA | B2 zA |\
dc BA | BF F>D | EE FF | [BB,][BB,]/[BB,]/ [BB,] :|
|: D |\

